src/icons/add-folder.svg

<?xml version="1.0" encoding="UTF-8"?>
<svg xmlns="http://www.w3.org/2000/svg" xmlns:xlink="http://www.w3.org/1999/xlink" width="32" height="32" viewBox="0 0 32 32" version="1.1">
<g id="surface1">
<path style=" stroke:none;fill-rule:nonzero;fill:rgb(0%,0%,0%);fill-opacity:1;" d="M 3.199219 2.558594 C 2.140625 2.558594 1.28125 3.421875 1.28125 4.480469 L 1.28125 8.320312 L 30.71875 8.320312 L 30.71875 7.039062 C 30.71875 5.980469 29.859375 5.121094 28.800781 5.121094 L 11.546875 5.125 C 11.371094 5.058594 11 4.472656 10.800781 4.15625 C 10.3125 3.371094 9.804688 2.558594 8.960938 2.558594 Z M 1.921875 9.601562 C 1.566406 9.601562 1.28125 9.886719 1.28125 10.238281 L 1.28125 27.519531 C 1.28125 28.578125 2.140625 29.441406 3.199219 29.441406 L 20.496094 29.441406 C 21.667969 30.988281 23.519531 32 25.601562 32 C 29.121094 32 32 29.121094 32 25.601562 C 32 24.171875 31.519531 22.851562 30.71875 21.785156 L 30.71875 10.238281 C 30.71875 9.886719 30.433594 9.601562 30.078125 9.601562 Z M 25.601562 20.480469 C 28.414062 20.480469 30.71875 22.785156 30.71875 25.601562 C 30.71875 28.414062 28.414062 30.71875 25.601562 30.71875 C 22.785156 30.71875 20.480469 28.414062 20.480469 25.601562 C 20.480469 22.785156 22.785156 20.480469 25.601562 20.480469 Z M 25.601562 21.824219 C 25.214844 21.824219 24.960938 22.078125 24.960938 22.464844 L 24.960938 24.960938 L 22.464844 24.960938 C 22.078125 24.960938 21.824219 25.214844 21.824219 25.601562 C 21.824219 25.984375 22.078125 26.238281 22.464844 26.238281 L 24.960938 26.238281 L 24.960938 28.734375 C 24.960938 29.121094 25.214844 29.375 25.601562 29.375 C 25.984375 29.375 26.238281 29.121094 26.238281 28.734375 L 26.238281 26.238281 L 28.734375 26.238281 C 29.121094 26.238281 29.375 25.984375 29.375 25.601562 C 29.375 25.214844 29.121094 24.960938 28.734375 24.960938 L 26.238281 24.960938 L 26.238281 22.464844 C 26.238281 22.078125 25.984375 21.824219 25.601562 21.824219 Z M 25.601562 21.824219 "/>
</g>
</svg>

<svg role="img" viewBox="0 0 32 32" xmlns="http://www.w3.org/2000/svg"><path d="M3.2 2.559A1.922 1.922 0 0 0 1.28 4.48v3.84h29.44V7.04a1.92 1.92 0 0 0-1.918-1.919l-17.254.004c-.176-.066-.547-.652-.746-.969-.489-.785-.996-1.597-1.84-1.597ZM1.921 9.602a.638.638 0 0 0-.64.636V27.52c0 1.058.859 1.921 1.917 1.921h17.297C21.668 30.988 23.52 32 25.602 32 29.122 32 32 29.121 32 25.602c0-1.43-.48-2.75-1.281-3.817V10.238a.638.638 0 0 0-.64-.636Zm23.68 10.878c2.812 0 5.117 2.305 5.117 5.122 0 2.812-2.305 5.117-5.117 5.117-2.817 0-5.122-2.305-5.122-5.117 0-2.817 2.305-5.122 5.122-5.122m0 1.344c-.387 0-.641.254-.641.64v2.497h-2.496c-.387 0-.64.254-.64.64 0 .383.253.637.64.637h2.496v2.496c0 .387.254.641.64.641.383 0 .637-.254.637-.64v-2.497h2.496c.387 0 .641-.254.641-.636 0-.387-.254-.641-.64-.641h-2.497v-2.496c0-.387-.254-.64-.636-.64m0 0" style="stroke:none;fill-rule:nonzero;fill:rgb(0%,0%,0%);fill-opacity:1"/></svg>
